X: 8
T: The Kesh
R: jig
M: 6/8
L: 1/8
K: Gmaj
|: "G"G G/G/G GAB|"D"A A/A/A ABd|"G"e d/d/d gdd|edB "D"dBA|
"G"G G/G/G GAB|"D"A A/A/A ABd|"G"e d/d/d gdB||"D"AGF"G" G2 A:|
|:"G"B A/B/B dBd|"C"ege "G"dBA|"G"B A/B/B dBG|"D"A B/A/A A2 A|
"G"B A/B/B dBd|"C"ege "G"dBA|g g/f/g "D"aga|"G"bgf g3 :|


Tune 55	Setting 29713

